!!!OTL: Quartett in A für 2 Violinen, Viola und Violoncello, 1. Satz, KV 464/01
!!!system-decoration: [(s1,s2,s3,s4)]
**kern	**kern	**kern	**kern	**dynam	**kern	**kern	**kern	**kern	**dynam	**kern	**kern	**kern	**kern	**dynam	**kern	**kern	**kern	**kern	**dynam
*part4	*part4	*part4	*part4	*part4	*part3	*part3	*part3	*part3	*part3	*part2	*part2	*part2	*part2	*part2	*part1	*part1	*part1	*part1	*part1
*staff16	*staff15	*staff14	*staff13	*	*staff12	*staff11	*staff10	*staff9	*	*staff8	*staff7	*staff6	*staff5	*	*staff4	*staff3	*staff2	*staff1	*
*I"Violoncello	*	*	*	*	*I"Viola	*	*	*	*	*I"Violino II	*	*	*	*	*I"Violino I	*	*	*	*
*clefF4	*	*clefC3	*	*clefG2	*	*clefG2	*
*k[f#c#g#]	*	*k[f#c#g#]	*	*k[f#c#g#]	*	*k[f#c#g#]	*
*M3/4	*	*M3/4	*	*M3/4	*	*M3/4	*
4A	.	4a	.	4c#y	.	4ee	.
=1	=1	=1	=1	=1	=1	=1	=1
2A	.	2a	.	2c#y	.	(4.ee	.
.	.	.	.	.	.	8dd#	.
4r	.	4r	.	4r	.	8ff#yL	.
.	.	.	.	.	.	8eeJ	.
=2	=2	=2	=2	=2	=2	=2	=2
2.r	.	2.r	.	2.r	.	8ddnL	.
.	.	.	.	.	.	8cc#y	.
.	.	.	.	.	.	8ee	.
.	.	.	.	.	.	8dd	.
.	.	.	.	.	.	8cc#y	.
.	.	.	.	.	.	8bJ)	.
=3	=3	=3	=3	=3	=3	=3	=3
4c#y	.	4e	.	4e	.	4a	.
4B	.	4g#y	.	4e 4d	.	4b	.
4A	.	4a	.	4e 4c#y	.	4cc#y	.
=4	=4	=4	=4	=4	=4	=4	=4
4G#y	.	4b	.	4e 4B	.	4dd	.
4r	.	4r	.	4r	.	4r	.
4E	.	4g#y	.	4B	.	4dd	.
=5	=5	=5	=5	=5	=5	=5	=5
2E	.	2g#y	.	2B	.	(4.dd	.
.	.	.	.	.	.	8cc#y	.
4r	.	4r	.	4r	.	8eeL	.
.	.	.	.	.	.	8ddJ	.
=6	=6	=6	=6	=6	=6	=6	=6
2.r	.	2.r	.	2.r	.	8cc#yL	.
.	.	.	.	.	.	8b	.
.	.	.	.	.	.	8dd	.
.	.	.	.	.	.	8cc#y	.
.	.	.	.	.	.	8b	.
.	.	.	.	.	.	8aJ)	.
!!LO:LB
=7	=7	=7	=7	=7	=7	=7	=7
(2.E	.	(4e	.	4e	.	4g#y	.
.	.	4d#	.	4f#y	.	4a	.
.	.	4dn)	.	4g#y	.	4b	.
=8	=8	=8	=8	=8	=8	=8	=8
4AA)	.	4c#y	.	4a	.	4cc#y	.
4r	.	4r	.	4r	.	4r	.
4AA	.	4A	.	4A	.	4A	.
=9	=9	=9	=9	=9	=9	=9	=9
(4.AA	.	(4.A	.	(4.A	.	(4.A	.
8C#yL	.	8c#yL	.	8c#yL	.	8c#yL	.
8D	.	8d	.	8d	.	8d	.
8C#yJ)	.	8c#yJ)	.	8c#yJ)	.	8c#yJ)	.
=10	=10	=10	=10	=10	=10	=10	=10
4BB	.	4B	.	4B	.	4B	.
4r	.	4r	.	4r	.	4r	.
4BB	.	4B	.	4B	.	4B	.
=11	=11	=11	=11	=11	=11	=11	=11
(4.BB	.	(4.B	.	(4.B	.	(4.B	.
8D#L	.	8d#L	.	8d#L	.	8d#L	.
8E	.	8e	.	8e	.	8e	.
8DnJ)	.	8dnJ)	.	8dnJ)	.	8dnJ)	.
=12	=12	=12	=12	=12	=12	=12	=12
4C#y	.	4c#y	.	4c#y	.	4c#y	.
4r	.	4r	.	4r	.	4r	.
4c#y	.	4e	.	4a	.	4aa	.
=13	=13	=13	=13	=13	=13	=13	=13
(2.c#y	.	(2.e	.	[2.a	.	(4.aa	.
.	.	.	.	.	.	8ccc#yL	.
.	.	.	.	.	.	8bb	.
.	.	.	.	.	.	8aaJ	.
=14	=14	=14	=14	=14	=14	=14	=14
4d)	.	4d)	.	4a]	.	8gg#yL	.
.	.	.	.	.	.	8ff#y	.
4r	.	4r	.	(8g#yL	.	8ee	.
.	.	.	.	8f#y	.	8dd	.
4r	.	4r	.	8e	.	8cc#y	.
.	.	.	.	8dJ)	.	8bJ)	.
=15	=15	=15	=15	=15	=15	=15	=15
4E	.	4r	.	(8c#yL	.	(2a	.
.	.	.	.	8e	.	.	.
4E	.	4r	.	8c#y	.	.	.
.	.	.	.	8e	.	.	.
4E	.	(4G#y	.	8d	.	8cc#yL	.
.	.	.	.	8eJ)	.	8bJ)	.
!!LO:LB
=16	=16	=16	=16	=16	=16	=16	=16
4AA	.	4A)	.	4c#y	.	4a	.
4r	.	4r	.	4r	.	4r	.
4A	.	4cn	.	4ee	.	4r	.
=17	=17	=17	=17	=17	=17	=17	=17
2A	.	2c	.	(4.ee	.	2.r	.
.	.	.	.	8dd#	.	.	.
4r	.	4r	.	8ffnL	.	.	.
.	.	.	.	8eeJ	.	.	.
=18	=18	=18	=18	=18	=18	=18	=18
2.r	.	4r	.	8ddnL	.	2.r	.
.	.	.	.	8ccn	.	.	.
.	.	4r	.	8ee	.	.	.
.	.	.	.	8dd	.	.	.
.	.	4fn	.	8cc	.	.	.
.	.	.	.	8bJ)	.	.	.
=19	=19	=19	=19	=19	=19	=19	=19
2.r	.	(4.f	.	4a	.	2.r	.
.	.	.	.	(4a'	.	.	.
.	.	8e	.	.	.	.	.
.	.	8gnL	.	4a'	.	.	.
.	.	8fJ	.	.	.	.	.
=20	=20	=20	=20	=20	=20	=20	=20
4r	.	8eL	.	4a'	.	2.r	.
.	.	8d	.	.	.	.	.
4r	.	8fn	.	4a'	.	.	.
.	.	8e	.	.	.	.	.
4Fn	.	8d	.	4a')	.	.	.
.	.	8cnJ)	.	.	.	.	.
=21	=21	=21	=21	=21	=21	=21	=21
(4.F	.	(2B	.	(4a	.	2.r	.
.	.	.	.	4gn	.	.	.
8E	.	.	.	.	.	.	.
8GnL	.	4cn)	.	4a)	.	.	.
8FJ	.	.	.	.	.	.	.
=22	=22	=22	=22	=22	=22	=22	=22
8EL	.	8d	.	8b	.	4r	.
8D	.	8r	.	8r	.	.	.
8Fn	.	(4d	.	(4b	.	4r	.
8E	.	.	.	.	.	.	.
8D	.	4e)	.	4ccn)	.	4ggn	.
8CnJ)	.	.	.	.	.	.	.
=23	=23	=23	=23	=23	=23	=23	=23
4BB	.	(8fnL	.	(8ddL	.	(4.ggn	.
.	.	8e	.	8ee	.	.	.
4D	.	8d	.	8ffn	.	.	.
.	.	8B	.	8dd	.	8ff#	.
4BB	.	8d	.	8ff	.	8aaL	.
.	.	8BJ)	.	8ddJ)	.	8ggJ	.
!!LO:LB
=24	=24	=24	=24	=24	=24	=24	=24
4GGn	.	4d	.	4b	.	8ffnL	.
.	.	.	.	.	.	8ee	.
4r	.	4r	.	4r	.	8ggn	.
.	.	.	.	.	.	8ff	.
4r	.	4r	.	4r	.	8ee	.
.	.	.	.	.	.	8ddJ)	.
=25	=25	=25	=25	=25	=25	=25	=25
(4CCn	.	8r	.	8r	.	(2ccn	.
.	.	(8cnL	.	(8eL	.	.	.
4Cn)	.	8e	.	8gn	.	.	.
.	.	8c	.	8e	.	.	.
4C	.	8E	.	8cn	.	4ee)	.
.	.	8cJ)	.	8eJ)	.	.	.
=26	=26	=26	=26	=26	=26	=26	=26
2.C	.	(8dL	.	(8fnL	.	(4.gn	.
.	.	8B	.	8d	.	.	.
.	.	8d	.	8f	.	.	.
.	.	8B	.	8d	.	8a)	.
.	.	8d	.	8f	.	4g	.
.	.	8BJ)	.	8dJ)	.	.	.
=27	=27	=27	=27	=27	=27	=27	=27
(4CC	.	(8cnL	.	(8eL	.	(4ggn	.
.	.	8E	.	8Gn	.	.	.
4C)	.	8Gn	.	8cn	.	4ee	.
.	.	8c	.	8e	.	.	.
4C	.	8e	.	8gn	.	4ccn)	.
.	.	8cJ)	.	8eJ)	.	.	.
=28	=28	=28	=28	=28	=28	=28	=28
2.C	.	(8dL	.	(8fnL	.	(4.gn	.
.	.	8B	.	8d	.	.	.
.	.	8d	.	8f	.	.	.
.	.	8B	.	8d	.	8a)	.
.	.	8d	.	8f	.	4g	.
.	.	8BJ)	.	8dJ)	.	.	.
=29	=29	=29	=29	=29	=29	=29	=29
4r	.	(4cn	.	(4e	.	(4.ee	.
(4C'	.	2e)	.	2gn)	.	.	.
.	.	.	.	.	.	8gnL	.
4C')	.	.	.	.	.	8ee	.
.	.	.	.	.	.	8gJ)	.
=30	=30	=30	=30	=30	=30	=30	=30
4r	cre	(4cn	cre	(4e	cre	(4.ee	cre
(4C'	.	2e)	.	2g#)	.	.	.
.	.	.	.	.	.	8g#L	.
4C')	.	.	.	.	.	8ee	.
.	.	.	.	.	.	8g#yJ)	.
=31	=31	=31	=31	=31	=31	=31	=31
4r	scen	(4cn	scen	(4e	scen	(4.ee	scen
(4Cn'	.	2e)	.	2a)	.	.	.
.	.	.	.	.	.	8aL	.
4C')	.	.	.	.	.	8ee	.
.	.	.	.	.	.	8aJ)	.
=32	=32	=32	=32	=32	=32	=32	=32
(4C'	do	(4c	do	(4e	do	(8eeL	do
.	.	.	.	.	.	8a#	.
4C'	.	2e)	.	2a#)	.	8ee	.
.	.	.	.	.	.	8a#y	.
4C')	.	.	.	.	.	8ee	.
.	.	.	.	.	.	8a#yJ)	.
=33	=33	=33	=33	=33	=33	=33	=33
4BB	.	8d#L	.	8bL	.	8r	.
.	.	(8d#y	.	(8f#	.	(8bL	.
4r	.	8f#y)	.	8an)	.	8bb)	.
.	.	8f#y	.	8a	.	8bb'	.
4E	.	(8f#y	.	(8a	.	8bb'	.
.	.	8eJ)	.	8gnJ)	.	8bb'J	.
=34	=34	=34	=34	=34	=34	=34	=34
4B	.	(8eL	.	(8gnL	.	8r	.
.	.	8d#	.	8f#y	.	(8bL	.
4r	.	8f#y)	.	8a)	.	8bb)	.
.	.	8f#y	.	8a	.	8bb	.
4E	.	(8f#y	.	(8a	.	8bb	.
.	.	8eJ)	.	8gJ)	.	8bbJ	.
=35	=35	=35	=35	=35	=35	=35	=35
4B	.	(8eL	.	(8gnL	.	8r	.
.	.	8d#	.	8f#y	.	(8bL	.
4r	.	8f#y)	.	8a)	.	8bb)	.
.	.	8f#y	.	8a	.	8bb	.
4E	.	(8f#y	.	(8a	.	8bb	.
.	.	8eJ)	.	8gJ)	.	8bbJ	.
=36	=36	=36	=36	=36	=36	=36	=36
4BB	.	4d#	.	4f#y	.	4bb	.
4r	.	4r	.	4r	.	4r	.
4r	.	4r	.	4r	.	4r	.
=37	=37	=37	=37	=37	=37	=37	=37
(2.E	.	[2.e	.	(2.g#	.	(2b	.
.	.	.	.	.	.	4b#	.
=38	=38	=38	=38	=38	=38	=38	=38
4A)	.	4e]	.	4a)	.	4cc#y)	.
4r	.	4r	.	4r	.	4r	.
4r	.	4r	.	4r	.	4r	.
!!LO:LB
=39	=39	=39	=39	=39	=39	=39	=39
4r	.	4r	.	4r	.	(12cc#yL	.
.	.	.	.	.	.	12dd#	.
.	.	.	.	.	.	12eeJ	.
4r	.	4r	.	4r	.	12dd#yL	.
.	.	.	.	.	.	12cc#y	.
.	.	.	.	.	.	12bJ	.
(4D#	.	4B	.	4f#y	.	12aL	.
.	.	.	.	.	.	12b	.
.	.	.	.	.	.	12aJ)	.
=40	=40	=40	=40	=40	=40	=40	=40
4E)	.	4B	.	(4e	.	(4g#y	.
4r	.	4r	.	4g#y)	.	4b)	.
4r	.	4r	.	4r	.	4r	.
=41	=41	=41	=41	=41	=41	=41	=41
(2.GG#y	.	[2.E	.	(2B	.	(2b	.
.	.	.	.	4B#	.	4b#	.
=42	=42	=42	=42	=42	=42	=42	=42
4AA)	.	4E]	.	4c#y)	.	4cc#y)	.
4r	.	4r	.	4r	.	4r	.
4r	.	4r	.	4r	.	4r	.
=43	=43	=43	=43	=43	=43	=43	=43
4r	.	4r	.	4r	.	(12eeL	.
.	.	.	.	.	.	12dd#	.
.	.	.	.	.	.	12cc#yJ	.
4r	.	4r	.	4r	.	12bL	.
.	.	.	.	.	.	12a	.
.	.	.	.	.	.	12g#yJ	.
4BB	.	(4A	.	(4d#	.	12f#yL	.
.	.	.	.	.	.	12g#y	.
.	.	.	.	.	.	12f#yJ)	.
=44	=44	=44	=44	=44	=44	=44	=44
4EE	.	4G#y)	.	4e)	.	(8eL	.
.	.	.	.	.	.	8g#y	.
4r	.	4r	.	4r	.	8b	.
.	.	.	.	.	.	8ee	.
4r	.	4r	.	4r	.	8gg#y	.
.	.	.	.	.	.	8bbJ)	.
=45	=45	=45	=45	=45	=45	=45	=45
(2.e	.	(2.g#y	.	(2b	.	4eee	.
.	.	.	.	.	.	4r	.
.	.	.	.	4b#	.	4r	.
=46	=46	=46	=46	=46	=46	=46	=46
4A)	.	2.a)	.	4cc#y)	.	(2ee	.
4r	.	.	.	4r	.	.	.
4r	.	.	.	4r	.	4ee#)	.
!!LO:LB
=47	=47	=47	=47	=47	=47	=47	=47
2.r	.	(4a#	.	(12cc#yL	.	(2ff#y	.
.	.	.	.	12dd#	.	.	.
.	.	.	.	12eeJ	.	.	.
.	.	4b	.	12dd#yL	.	.	.
.	.	.	.	12cc#y	.	.	.
.	.	.	.	12bnJ	.	.	.
.	.	4d#)	.	12aL	.	4ff##)	.
.	.	.	.	12b	.	.	.
.	.	.	.	12aJ)	.	.	.
=48	=48	=48	=48	=48	=48	=48	=48
(2E	.	4e	.	(4g#y	.	(12gg#yL	.
.	.	.	.	.	.	12bb	.
.	.	.	.	.	.	12aaJ	.
.	.	4r	.	4b)	.	12gg#yL	.
.	.	.	.	.	.	12ff#y	.
.	.	.	.	.	.	12eeJ	.
4F#y	.	4r	.	4r	.	12dd#L	.
.	.	.	.	.	.	12ee	.
.	.	.	.	.	.	12cc#yJ)	.
=49	=49	=49	=49	=49	=49	=49	=49
4G#y)	.	2.G#y	.	(12bL	.	(2b	.
.	.	.	.	12cc#y	.	.	.
.	.	.	.	12bJ	.	.	.
4r	.	.	.	12aL	.	.	.
.	.	.	.	12g#y	.	.	.
.	.	.	.	12f#yJ	.	.	.
4r	.	.	.	12eL	.	4b#)	.
.	.	.	.	12f#y	.	.	.
.	.	.	.	12dnJ)	.	.	.
=50	=50	=50	=50	=50	=50	=50	=50
(2AA	.	(12AL	.	4c#y	.	4cc#y	.
.	.	12c#y	.	.	.	.	.
.	.	12BJ	.	.	.	.	.
.	.	12AL	.	4r	.	[2ff#y	.
.	.	12G#y	.	.	.	.	.
.	.	12F#yJ	.	.	.	.	.
4AA#)	.	12EL	.	[4cc#y	.	.	.
.	.	12F#y	.	.	.	.	.
.	.	12EJ)	.	.	.	.	.
=51	=51	=51	=51	=51	=51	=51	=51
(2BB	.	4D#	.	(12cc#yL_	.	(8ff#yL_	.
.	.	.	.	12dd#	.	.	.
.	.	.	.	.	.	8dd#J)	.
.	.	.	.	12cc#yJ	.	.	.
.	.	4r	.	12bL	.	[2gg#y	.
.	.	.	.	12a	.	.	.
.	.	.	.	12g#yJ	.	.	.
4BB#)	.	[4d#	.	12f#yL	.	.	.
.	.	.	.	12g#y	.	.	.
.	.	.	.	12f#yJ)	.	.	.
!!LO:LB
=52	=52	=52	=52	=52	=52	=52	=52
2C#y	.	(12d#yL_	.	4e	.	(8gg#yL_	.
.	.	12e	.	.	.	.	.
.	.	.	.	.	.	8eeJ)	.
.	.	12d#yJ	.	.	.	.	.
.	.	12c#yL	.	4r	.	[2aa	.
.	.	12B	.	.	.	.	.
.	.	12AJ	.	.	.	.	.
(4C#y	.	12G#yL	.	[4ee	.	.	.
.	.	12A	.	.	.	.	.
.	.	12G#yJ)	.	.	.	.	.
=53	=53	=53	=53	=53	=53	=53	=53
2D#)	.	4F#y	.	(12eeL_	.	(8aaL_	.
.	.	.	.	12ff#y	.	.	.
.	.	.	.	.	.	8ff#yJ)	.
.	.	.	.	12eeJ	.	.	.
.	.	4r	.	12dd#L	.	[2bb	.
.	.	.	.	12cc#y	.	.	.
.	.	.	.	12bJ	.	.	.
(4D#y	.	(4f#y	.	12aL	.	.	.
.	.	.	.	12b	.	.	.
.	.	.	.	12aJ)	.	.	.
=54	=54	=54	=54	=54	=54	=54	=54
4E)	.	4e)	.	4g#y	.	(8bbL_	.
.	.	.	.	.	.	8gg#y	.
4r	.	2ee	.	(4gg#y	.	8ccc#y	.
.	.	.	.	.	.	8gg#y	.
4r	.	.	.	4ff#y)	.	8aa	.
.	.	.	.	.	.	8ff#yJ)	.
=55	=55	=55	=55	=55	=55	=55	=55
2.r	.	(2dd#	.	4ff#y]	.	(8bbL	.
.	.	.	.	.	.	8ff#y	.
.	.	.	.	(2ee	.	8gg#y	.
.	.	.	.	.	.	8ee	.
.	.	4cc#y)	.	.	.	8aa	.
.	.	.	.	.	.	8eeJ)	.
=56	=56	=56	=56	=56	=56	=56	=56
2.r	.	4cc#y]	.	2dd#)	.	(8ff#yL	.
.	.	.	.	.	.	8dd#	.
.	.	(2b	.	.	.	8gg#y	.
.	.	.	.	.	.	8dd#y	.
.	.	.	.	[(4cc#y	.	8ee	.
.	.	.	.	.	.	8cc#yJ)	.
=57	=57	=57	=57	=57	=57	=57	=57
2.r	.	2a	.	4cc#y]	.	(8ff#yL	.
.	.	.	.	.	.	8cc#y	.
.	.	.	.	2b)	.	8dd#	.
.	.	.	.	.	.	8b	.
.	.	4g#y)	.	.	.	8ee	.
.	.	.	.	.	.	8bJ)	.
=58	=58	=58	=58	=58	=58	=58	=58
4r	.	4r	.	4r	.	(8aL	.
.	.	.	.	.	.	8f#y	.
(4F#y	.	[2f#y	.	[2a	.	8c#y	.
.	.	.	.	.	.	8a	.
4E)	.	.	.	.	.	8cn	.
.	.	.	.	.	.	8aJ)	.
=59	=59	=59	=59	=59	=59	=59	=59
(2D#	.	4f#y]	.	4a]	.	(8BL	.
.	.	.	.	.	.	8a	.
.	.	(4a	.	(4cc#y	.	8cc	.
.	.	.	.	.	.	8a	.
4E)	.	4g#y	.	4b	.	8b	.
.	.	.	.	.	.	8g#yJ)	.
=60	=60	=60	=60	=60	=60	=60	=60
4A	.	4f#y	.	4a	.	(8aL	.
.	.	.	.	.	.	8f#y	.
4B	.	4e	.	4g#y	.	8g#y	.
.	.	.	.	.	.	8e	.
4BB	.	4d#)	.	4f#y)	.	8f#y	.
.	.	.	.	.	.	8d#J)	.
=61	=61	=61	=61	=61	=61	=61	=61
4E	.	4e	.	4e	.	(8eL	cresc.
.	.	.	.	.	.	8g#y	.
4r	.	4r	.	4r	.	8b)	.
.	.	.	.	.	.	8ee	.
4r	.	4r	.	4r	.	(8gg#y	.
.	.	.	.	.	.	8bbJ)	.
=62	=62	=62	=62	=62	=62	=62	=62
2.r	.	4r	.	4r	.	(8aaL	.
.	.	.	.	.	.	8ff#y	.
.	.	(4f#y	.	(4a	.	8cc#y	.
.	.	.	.	.	.	8aa	.
.	.	4e)	.	4gn)	.	8ccn	.
.	.	.	.	.	.	8aaJ)	.
=63	=63	=63	=63	=63	=63	=63	=63
2.r	.	(2d#	.	(2f#y	.	(8bL	.
.	.	.	.	.	.	8ff#y	.
.	.	.	.	.	.	8aa)	.
.	.	.	.	.	.	8b	.
.	.	4e)	.	4gn)	.	(8ccn	.
.	.	.	.	.	.	8aaJ)	.
=64	=64	=64	=64	=64	=64	=64	=64
2.r	.	(2d#	.	(2f#y	.	(8bL	.
.	.	.	.	.	.	8ff#y	.
.	.	.	.	.	.	8aa)	.
.	.	.	.	.	.	8b	.
.	.	4e)	.	4gn)	.	(8ccn	.
.	.	.	.	.	.	8aaJ)	.
=65	=65	=65	=65	=65	=65	=65	=65
2.r	.	2.d#	.	2.f#y	.	(8bL	.
.	.	.	.	.	.	8ff#y	.
.	.	.	.	.	.	8aa)	.
.	.	.	.	.	.	8aa'	.
.	.	.	.	.	.	8aa'	.
.	.	.	.	.	.	8aa'J	.
!!LO:LB
=66	=66	=66	=66	=66	=66	=66	=66
2.c#y	.	[2.e	.	2.gn	.	8r	.
.	.	.	.	.	.	(8eeL	.
.	.	.	.	.	.	8aa#)	.
.	.	.	.	.	.	8aa#y'	.
.	.	.	.	.	.	8aa#y'	.
.	.	.	.	.	.	8aa#y'J	.
=67	=67	=67	=67	=67	=67	=67	=67
(4B	.	(4e_	.	(4g#	.	8r	.
.	.	.	.	.	.	8bbL	.
4B#	.	4d#	.	8aL	.	(8ff#y	.
.	.	.	.	8f#yJ)	.	8aan)	.
4c#y)	.	4e)	.	4e	.	(8ee	.
.	.	.	.	.	.	8gg#J)	.
=68	=68	=68	=68	=68	=68	=68	=68
4A	.	4a	.	4cc#y	.	8a'L	.
.	.	.	.	.	.	8ff#y'	.
4Bn	.	4g#y	.	4b	.	8g#y	.
.	.	.	.	.	.	8ee	.
4BB	.	4f#y	.	4a	.	8f#y	.
.	.	.	.	.	.	8dd#J	.
=69	=69	=69	=69	=69	=69	=69	=69
2.r	.	2.c#y	.	[2.g#y	.	(4.ee	.
.	.	.	.	.	.	8dd#L	.
.	.	.	.	.	.	8ff#y	.
.	.	.	.	.	.	8eeJ	.
=70	=70	=70	=70	=70	=70	=70	=70
2.r	.	(2B	.	(2g#y_	.	8ddnL	.
.	.	.	.	.	.	8cc#y	.
.	.	.	.	.	.	8ee	.
.	.	.	.	.	.	8dd	.
.	.	4G#y)	.	4e)	.	8cc#y	.
.	.	.	.	.	.	8b#J)	.
=71	=71	=71	=71	=71	=71	=71	=71
2.r	.	4A	.	4e	.	4cc#y	.
.	.	4r	.	8r	.	8r	.
.	.	.	.	(8aL	.	(8cc#yL	.
.	.	4r	.	8b	.	8dd#	.
.	.	.	.	8cc#yJ)	.	8eeJ)	.
=72	=72	=72	=72	=72	=72	=72	=72
2.r	.	4B	.	(8g#yL	.	(8bL	.
.	.	.	.	8a	.	8cc#y	.
.	.	4B	.	8g#y	.	8b	.
.	.	.	.	8e	.	8g#y	.
.	.	4B	.	8f#y	.	8a	.
.	.	.	.	8d#J)	.	8f#yJ)	.
!!LO:LB
=73	=73	=73	=73	=73	=73	=73	=73
.	.	.	.	(<16qe	.	.	.
(4.c#y	.	[2.e	.	(4.ee)	.	4e	.
.	.	.	.	.	.	4r	.
8B#L	.	.	.	8dd#L	.	.	.
8dn	.	.	.	8ff#y	.	4r	.
8c#yJ	.	.	.	8eeJ	.	.	.
=74	=74	=74	=74	=74	=74	=74	=74
8BnL	.	2.e]	.	8ddnL	.	2.r	.
8A#	.	.	.	8cc#y	.	.	.
8c#y	.	.	.	8ee	.	.	.
8B	.	.	.	8dd	.	.	.
8An	.	.	.	8cc#y	.	.	.
8G#yJ)	.	.	.	8b#J)	.	.	.
=75	=75	=75	=75	=75	=75	=75	=75
4A	.	(4.a	.	4cc#y	.	(4.ccc#y	.
4r	.	.	.	4r	.	.	.
.	.	8g#yL	.	.	.	8bb#L	.
4r	.	8b	.	4r	.	8dddn	.
.	.	8aJ	.	.	.	8ccc#yJ	.
=76	=76	=76	=76	=76	=76	=76	=76
2.r	.	8g#yL	.	[2.c#y	.	8bbnL	.
.	.	8f##	.	.	.	8aa#	.
.	.	8a#	.	.	.	8ccc#y	.
.	.	8g#y	.	.	.	8bb	.
.	.	8f#y	.	.	.	8aan	.
.	.	8e#J)	.	.	.	8gg#yJ)	.
=77	=77	=77	=77	=77	=77	=77	=77
(4.F#y	.	[2.f#y	.	2.c#y]	.	(2.aa	.
8E#L	.	.	.	.	.	.	.
8G#y	.	.	.	.	.	.	.
8F#yJ	.	.	.	.	.	.	.
=78	=78	=78	=78	=78	=78	=78	=78
8EnL	.	2.f#y_	.	2.cc#y	.	2.aa#)	.
8D#	.	.	.	.	.	.	.
8F#y	.	.	.	.	.	.	.
8E	.	.	.	.	.	.	.
8D#y	.	.	.	.	.	.	.
8C#yJ)	.	.	.	.	.	.	.
=79	=79	=79	=79	=79	=79	=79	=79
4D#	.	(2f#y_	.	(4b	.	(8aa#yL_	.
.	.	.	.	.	.	8bb)	.
4BB	.	.	.	4dd#	.	(8bb	.
.	.	.	.	.	.	8aan)	.
4C#y	.	4e)	.	4ee)	.	(8aa	.
.	.	.	.	.	.	8gg#yJ)	.
!!LO:LB
=80	=80	=80	=80	=80	=80	=80	=80
4AA	.	(8eL_	.	(4cc#y	.	(8gg#yL	.
.	.	8f#yJ	.	.	.	8ff#y)	.
4BB	.	4g#y	.	2b)	.	(8ff#y	.
.	.	.	.	.	.	8ee)	.
4A	.	4f#y)	.	.	.	(8ee	.
.	.	.	.	.	.	8dd#J)	.
=81	=81	=81	=81	=81	=81	=81	=81
8G#y	.	8r	.	8r	.	8r	.
8r	.	8e	.	8b	.	8bb	.
8F#y	.	8r	.	8r	.	8r	.
8r	.	8b	.	8dd#	.	8aa	.
8E	.	8r	.	8r	.	8r	.
8r	.	8b	.	8ee	.	8gg#y	.
=82	=82	=82	=82	=82	=82	=82	=82
8A	.	8r	.	8r	.	8r	.
8r	.	8a	.	8cc#y	.	8ff#y	.
8B	.	8r	.	8r	.	8r	.
8r	.	8g#y	.	8b	.	8ee	.
8BB	.	8r	.	8r	.	8r	.
8r	.	8f#y	.	8a	.	8dd#	.
=83	=83	=83	=83	=83	=83	=83	=83
4E	.	4e	.	4g#y	.	4ee	.
4r	.	4r	.	4r	.	4r	.
4r	.	4r	.	4r	.	4e	.
=84	=84	=84	=84	=84	=84	=84	=84
(2.C#y	.	(2G#y	.	[2.e	.	(4.e	.
.	.	.	.	.	.	8g#yL	.
.	.	4E)	.	.	.	8a	.
.	.	.	.	.	.	8g#yJ)	.
=85	=85	=85	=85	=85	=85	=85	=85
2.AA	.	4c#y	.	2.e_	.	4f#y	.
.	.	4r	.	.	.	4r	.
.	.	4F#y	.	.	.	[4cc#y	.
=86	=86	=86	=86	=86	=86	=86	=86
2.BB)	.	(4.F#y	.	(4e_	.	(4cc#y_	.
.	.	.	.	4d#	.	4b)	.
.	.	8A#L	.	.	.	.	.
.	.	8B	.	4B)	.	(4d#	.
.	.	8AnJ)	.	.	.	.	.
=87	=87	=87	=87	=87	=87	=87	=87
4EE	.	4G#y	.	4B	.	4e)	.
4r	.	4r	.	4r	.	4r	.
=:|!	=:|!	=:|!	=:|!	=:|!	=:|!	=:|!	=:|!
4E	.	4ee	.	4gn	.	4bb	.
=88	=88	=88	=88	=88	=88	=88	=88
2E	.	2ee	.	2g	.	(4.bb	.
.	.	.	.	.	.	8aa#	.
4r	.	4r	.	4r	.	8cccnL	.
.	.	.	.	.	.	8bbJ	.
=89	=89	=89	=89	=89	=89	=89	=89
2.r	.	4r	.	4r	.	8aanL	.
.	.	.	.	.	.	8ggn	.
.	.	4r	.	4r	.	8bb	.
.	.	.	.	.	.	8aa	.
.	.	4e	.	4gn	.	8gg	.
.	.	.	.	.	.	8ff#yJ	.
=90	=90	=90	=90	=90	=90	=90	=90
2.r	.	(4.e	.	(4.g	.	4ee)	.
.	.	.	.	.	.	(4ee'	.
.	.	8d#	.	8f#y	.	.	.
.	.	8f#yL	.	8aL	.	4ee'	.
.	.	8eJ	.	8gJ	.	.	.
=91	=91	=91	=91	=91	=91	=91	=91
4r	.	8dnL	.	8f#yL	.	4ee'	.
.	.	8c#	.	8e	.	.	.
4r	.	8e	.	8gn	.	4ee'	.
.	.	8d	.	8f#y	.	.	.
4F#y	.	8c#y	.	8e	.	4ee')	.
.	.	8BJ)	.	8dnJ)	.	.	.
=92	=92	=92	=92	=92	=92	=92	=92
(4.F#y	.	4A#	.	4c#	.	(4ee	.
.	.	4A#y	.	4c#y	.	4e)	.
8E#	.	.	.	.	.	.	.
8GnL	.	4A#y	.	4c#y	.	4e	.
8F#yJ	.	.	.	.	.	.	.
=93	=93	=93	=93	=93	=93	=93	=93
8EnL	.	2A	.	2c#y	.	2e	.
8D#	.	.	.	.	.	.	.
8F#y	.	.	.	.	.	.	.
8E	.	.	.	.	.	.	.
8D#y	.	4r	.	4r	.	4r	.
8C#J)	.	.	.	.	.	.	.
=94	=94	=94	=94	=94	=94	=94	=94
(4BB	.	4cc#y	.	4ee	.	(4ggn	.
4AA#)	.	4cc#y	.	4ee	.	4ff#y)	.
4AA#y	.	4cc#y	.	4ee	.	4ff#y	.
!!LO:LB
=95	=95	=95	=95	=95	=95	=95	=95
4AA#	.	4cc#y	.	4ee	.	4ff#y	.
4r	.	4r	.	4r	.	4r	.
4r	.	4r	.	4r	.	4b	.
=96	=96	=96	=96	=96	=96	=96	=96
(2.Dn	.	(2.f#y	.	[2.b	.	(4.b	.
.	.	.	.	.	.	8ddL	.
.	.	.	.	.	.	8ee	.
.	.	.	.	.	.	8ddJ)	.
=97	=97	=97	=97	=97	=97	=97	=97
2.E	.	4gn)	.	2.b_	.	4cc#y	.
.	.	4r	.	.	.	4r	.
.	.	4c#y	.	.	.	[4ggn	.
=98	=98	=98	=98	=98	=98	=98	=98
2.F#y)	.	(4.c#y	.	(4b_	.	(4gg_	.
.	.	.	.	4a#	.	4ff#y)	.
.	.	8eL	.	.	.	.	.
.	.	8f#y	.	4f#y)	.	(4a#	.
.	.	8eJ)	.	.	.	.	.
=99	=99	=99	=99	=99	=99	=99	=99
4BB	.	4d	.	4f#y	.	4b)	.
4r	.	4r	.	4r	.	4r	.
[4Gn	.	4d	.	4b	.	4ggn	.
=100	=100	=100	=100	=100	=100	=100	=100
4G]	.	8dL	.	8bL	.	4.gg	.
.	.	8BJ	.	8gnJ	.	.	.
4GGn	.	4.b	.	4.dd	.	.	.
.	.	.	.	.	.	8ddL	.
[4G	.	.	.	.	.	8bb	.
.	.	8B	.	8d	.	8ggJ	.
=101	=101	=101	=101	=101	=101	=101	=101
4G]	.	8AL	.	8f#yL	.	4.cccn	.
.	.	8f#yJ	.	8aJ	.	.	.
4GG	.	4.a	.	4.ccn	.	.	.
.	.	.	.	.	.	8ff#yL	.
[4G	.	.	.	.	.	8aa	.
.	.	8cn	.	8f#y	.	8ddJ	.
=102	=102	=102	=102	=102	=102	=102	=102
4G]	.	8BL	.	8gnL	.	4.ggn	.
.	.	8gnJ	.	8bJ	.	.	.
4GG	.	4.b	.	4.dd	.	.	.
.	.	.	.	.	.	8ddL	.
[4G	.	.	.	.	.	8bb	.
.	.	8B	.	8d	.	8ggJ	.
!!LO:LB
=103	=103	=103	=103	=103	=103	=103	=103
4G]	.	8AL	.	8f#yL	.	4.cccn	.
.	.	8f#yJ	.	8aJ	.	.	.
4GGn	.	4.a	.	4.ccn	.	.	.
.	.	.	.	.	.	8ff#yL	.
[4G	.	.	.	.	.	8aa	.
.	.	8cn	.	8f#y	.	8ddJ	.
=104	=104	=104	=104	=104	=104	=104	=104
4G]	.	4B	.	4gn	.	(8ggnL	.
.	.	.	.	.	.	8bb)	.
4r	.	4r	.	4r	.	(8dd	.
.	.	.	.	.	.	8gg)	.
4r	.	4r	.	4r	.	(8b	.
.	.	.	.	.	.	8ddJ)	.
=105	=105	=105	=105	=105	=105	=105	=105
2.r	.	4r	.	4r	.	(8gnL	.
.	.	.	.	.	.	8b)	.
.	.	4r	.	4r	.	(8d	.
.	.	.	.	.	.	8g)	.
.	.	4d	.	4ffn	.	(8B	.
.	.	.	.	.	.	8dJ)	.
=106	=106	=106	=106	=106	=106	=106	=106
2.r	.	(4.d	.	(4.ffn	.	4Gn	.
.	.	.	.	.	.	4r	.
.	.	8c#L	.	8eeL	.	.	.
.	.	8e	.	8ggn	.	4r	.
.	.	8dJ	.	8ffJ	.	.	.
=107	=107	=107	=107	=107	=107	=107	=107
4r	.	8cnL	.	8eeL	.	4r	.
.	.	8B	.	8dd	.	.	.
4r	.	8d	.	8ffn	.	4r	.
.	.	8c	.	8ee	.	.	.
4d	.	8B	.	8dd	.	4ffn	.
.	.	8AJ)	.	8ccnJ)	.	.	.
=108	=108	=108	=108	=108	=108	=108	=108
(4.d	.	(4A	.	(4cc	.	(4.ffn	.
.	.	4Gn)	.	4b)	.	.	.
8c#	.	.	.	.	.	8ee	.
8eL	.	4G	.	4b	.	8ggnL	.
8dJ	.	.	.	.	.	8ffJ	.
=109	=109	=109	=109	=109	=109	=109	=109
8cnL	.	(2Gn	.	(2b	.	8eeL	.
8B	.	.	.	.	.	8dd	.
8d	.	.	.	.	.	8ffn	.
8c	.	.	.	.	.	8ee	.
8B	.	4d)	.	4ffn)	.	8dd	.
8AJ)	.	.	.	.	.	8ccnJ)	.
!!LO:LB
=110	=110	=110	=110	=110	=110	=110	=110
(4A	.	(4.d	cresc.	(4.ffn	cresc.	(4ccn	.
4G#)	.	.	.	.	.	4b)	.
.	.	8c#	.	8ee	.	.	.
4G#y	.	8eL	.	8ggnL	.	4b	.
.	.	8dJ	.	8ffJ	.	.	.
=111	=111	=111	=111	=111	=111	=111	=111
(2G#y	crescendo	8c#yL	.	8eeL	.	(2b	crescendo
.	.	8B	.	8dd	.	.	.
.	.	8c#y	.	8ee	.	.	.
.	.	8B	.	8dd	.	.	.
4B)	.	8A	.	8cc#	.	4dd)	.
.	.	8G#J)	.	8bJ)	.	.	.
=112	=112	=112	=112	=112	=112	=112	=112
(4.B	.	(4F#	.	(4a	.	(4.dd	.
.	.	4E#)	.	4g#)	.	.	.
8A#	.	.	.	.	.	8cc#	.
8c#L	.	4E#y	.	4g#y	.	8eeL	.
8BJ)	.	.	.	.	.	8ddJ)	.
=113	=113	=113	=113	=113	=113	=113	=113
(8AnL	.	(2E#	.	(2g#y	.	(8cc#yL	.
8G#y	.	.	.	.	.	8b	.
8A	.	.	.	.	.	8cc#y	.
8G#y	.	.	.	.	.	8b	.
8F#y	.	4G#)	.	4b)	.	8a	.
8E#J)	.	.	.	.	.	8g#J)	.
=114	=114	=114	=114	=114	=114	=114	=114
(4D#	.	(4.G#y	.	(4.b	.	(4f#	.
4C#y)	.	.	.	.	.	4e#)	.
.	.	8F##	.	8a#	.	.	.
4C#y	.	8A#L	.	8cc#yL	.	4e#y	.
.	.	8G#yJ)	.	8bJ)	.	.	.
=115	=115	=115	=115	=115	=115	=115	=115
2.C#y	.	(8c#yL	.	(8anL	.	(2e#	.
.	.	8B	.	8g#y	.	.	.
.	.	8c#y	.	8a	.	.	.
.	.	8B	.	8g#y	.	.	.
.	.	8An	.	8f#y	.	4cc#y)	.
.	.	8G#yJ)	.	8e#J)	.	.	.
=116	=116	=116	=116	=116	=116	=116	=116
8F#yL	.	4F#y	.	8f#y	.	(2aa	.
8F#y	.	.	.	4ff#y	.	.	.
8F#y	.	2c#y	.	.	.	.	.
8F#y	.	.	.	4ff#y	.	.	.
8En	.	.	.	.	.	4aa#)	.
8EJ	.	.	.	[8ff#y	.	.	.
=117	=117	=117	=117	=117	=117	=117	=117
8D#L	.	4B	.	8ff#y]	.	(2bb	.
8D#y	.	.	.	4ff#y	.	.	.
8D#y	.	2f#y	.	.	.	.	.
8D#y	.	.	.	4ff#y	.	.	.
8Dn	.	.	.	.	.	4bb#)	.
8DJ	.	.	.	(8ff#y	.	.	.
=118	=118	=118	=118	=118	=118	=118	=118
4C#y	.	4g#y	.	4ee#)	.	(4.ccc#y	.
4r	.	4r	.	4r	.	.	.
.	.	.	.	.	.	8bb#	.
4r	.	4r	.	4r	.	8ccc#yL	.
.	.	.	.	.	.	8gg#yJ)	.
=119	=119	=119	=119	=119	=119	=119	=119
2.r	.	2.r	.	2.r	.	(8aaL	.
.	.	.	.	.	.	8ee#	.
.	.	.	.	.	.	8ff#y	.
.	.	.	.	.	.	8cc#y	.
.	.	.	.	.	.	8dd	.
.	.	.	.	.	.	8b#J)	.
=120	=120	=120	=120	=120	=120	=120	=120
(4.c#y	.	(4.cc#y	.	(4.cc#y	.	(4.cc#y	.
8B#	.	8b#	.	8b#	.	8b#	.
8c#yL	.	8cc#yL	.	8cc#yL	.	8cc#yL	.
8G#yJ)	.	8g#yJ)	.	8g#yJ)	.	8g#yJ)	.
=121	=121	=121	=121	=121	=121	=121	=121
(8AL	.	(8aL	.	(8aL	.	(8aL	.
8E#	.	8e#	.	8e#	.	8e#	.
8F#y	.	8f#y	.	8f#y	.	8f#y	.
8C#y	.	8c#y	.	8c#y	.	8c#y	.
8D	.	8d	.	8d	.	8d	.
8BB#J)	.	8B#J)	.	8B#J)	.	8B#J)	.
=122	=122	=122	=122	=122	=122	=122	=122
4C#y	.	4c#y	.	4c#y	.	4c#y	.
4r	.	4r	.	4r	.	4r	.
4r	.	4r	.	4r	.	4c#y	.
=123	=123	=123	=123	=123	=123	=123	=123
4C#y	.	4E#	.	4G#y	.	(4.c#y	.
4r	.	4r	.	4r	.	.	.
.	.	.	.	.	.	8e#L	.
4r	.	4r	.	4r	.	8g#y	.
.	.	.	.	.	.	8e#yJ)	.
=124	=124	=124	=124	=124	=124	=124	=124
4r	.	4r	.	4r	.	4c#y	.
4C#y	.	4E#	.	4G#y	.	4r	.
4C#y	.	4E#y	.	4G#y	.	4c#y	.
!!LO:LB
=125	=125	=125	=125	=125	=125	=125	=125
4C#y	.	4En	.	4G#y	.	(4.c#y	.
4r	.	4r	.	4r	.	.	.
.	.	.	.	.	.	8enL	.
4r	.	4r	.	4r	.	8g#y	.
.	.	.	.	.	.	8eJ)	.
=126	=126	=126	=126	=126	=126	=126	=126
4r	.	4r	.	4r	.	4c#y	.
4C#y	.	4E	.	4G#y	.	4r	.
4C#y	.	4E	.	4G#y	.	4c#y	.
=127	=127	=127	=127	=127	=127	=127	=127
[2.AA	.	[2.E	.	[2.Gn	.	(4.c#y	.
.	.	.	.	.	.	8eL	.
.	.	.	.	.	.	8gn	.
.	.	.	.	.	.	8eJ)	.
=128	=128	=128	=128	=128	=128	=128	=128
(4AA_	.	(4E_	.	(4G_	.	(2c#y	.
4AA#	.	4Gn	.	4e	.	.	.
4BB)	.	4F#y)	.	4d)	.	4d)	.
=129	=129	=129	=129	=129	=129	=129	=129
(2.BB	.	(2F#y	.	4d	.	(4.d	.
.	.	.	.	4r	.	.	.
.	.	.	.	.	.	8f#yL	.
.	.	4D)	.	4B	.	8gn	.
.	.	.	.	.	.	8f#yJ)	.
=130	=130	=130	=130	=130	=130	=130	=130
2.GGn	.	(4D_	.	(4.B	.	4e	.
.	.	4B	.	.	.	4r	.
.	.	.	.	8dL	.	.	.
.	.	4E)	.	8e	.	[4b	.
.	.	.	.	8dJ)	.	.	.
=131	=131	=131	=131	=131	=131	=131	=131
2.AA)	.	(4.E	.	(2c#y	.	(4b_	.
.	.	.	.	.	.	4a)	.
.	.	8G#L	.	.	.	.	.
.	.	8A	.	4e)	.	(4c#y	.
.	.	8GnJ)	.	.	.	.	.
=132	=132	=132	=132	=132	=132	=132	=132
4DD	.	4F#y	.	4d	.	4d)	.
4r	.	4r	.	4r	.	4r	.
4r	.	4r	.	4r	.	4d	.
=133	=133	=133	=133	=133	=133	=133	=133
2.r	.	4r	.	4r	.	(4.d	.
.	.	4r	.	4r	.	.	.
.	.	.	.	.	.	8f#yL	.
.	.	4F#y	.	4A	.	8gn	.
.	.	.	.	.	.	8f#yJ)	.
!!LO:LB
=134	=134	=134	=134	=134	=134	=134	=134
4r	cre	(4.Gn	cre	(4.B	cre	4e	.
4r	.	.	.	.	.	4r	.
.	.	8BL	.	8dL	.	.	.
(4G#	.	8c#y	.	8e	.	4e	.
.	.	8BJ)	.	8dJ)	.	.	.
=135	=135	=135	=135	=135	=135	=135	=135
4A)	.	4A	.	4c#y	.	(4.e	cre
4r	.	4r	.	4r	.	.	.
.	.	.	.	.	.	8g#L	.
4r	.	4A	.	4c#y	.	8a	.
.	.	.	.	.	.	8gnJ)	.
=136	=136	=136	=136	=136	=136	=136	=136
4r	scendo	(4.A#	scen	(4.c#y	scen	4f#y	scen
4r	.	.	.	.	.	4r	.
.	.	8c#yL	.	8eL	.	.	.
(4A#	.	8d	.	8f#y	.	4f#y	.
.	.	8c#yJ)	.	8eJ)	.	.	.
=137	=137	=137	=137	=137	=137	=137	=137
4B)	.	4B	.	4d	.	(4.f#y	do
4r	.	4r	.	4r	.	.	.
.	.	.	.	.	.	8a#L	.
4r	.	4B	.	4d	.	8b	.
.	.	.	.	.	.	8anJ)	.
=138	=138	=138	=138	=138	=138	=138	=138
4r	.	(4.B#	do	(4.d#	do	4g#	.
4r	.	.	.	.	.	4r	.
.	.	8d#L	.	8f#yL	.	.	.
4BB#	.	8e	.	8g#	.	[4g#y	.
.	.	8d#yJ)	.	8f#yJ)	.	.	.
=139	=139	=139	=139	=139	=139	=139	=139
(4.C#y	.	4c#y	.	4e	.	4g#y]	.
.	.	4r	.	4r	.	[2cc#y	.
8EL	.	.	.	.	.	.	.
8F#y	.	4G#y	.	4c#y	.	.	.
8EJ)	.	.	.	.	.	.	.
=140	=140	=140	=140	=140	=140	=140	=140
4D#	.	(4.F#y	.	(4.d#	.	4cc#y]	.
4r	.	.	.	.	.	[2b	.
.	.	8d#L	.	8f#yL	.	.	.
4GG#y	.	8e	.	8g#y	.	.	.
.	.	8dnJ)	.	8f#yJ)	.	.	.
=141	=141	=141	=141	=141	=141	=141	=141
(4.AA	.	4c#y	.	4e	.	4b]	.
.	.	4r	.	4r	.	[2a	.
8C#yL	.	.	.	.	.	.	.
8Dn	.	4E	.	4A	.	.	.
8C#yJ)	.	.	.	.	.	.	.
=142	=142	=142	=142	=142	=142	=142	=142
4BB	.	(4.D	.	(4.B	.	4a]	.
4r	.	.	.	.	.	[2g#y	.
.	.	8BL	.	8dnL	.	.	.
4EE	.	8c#y	.	8e	.	.	.
.	.	8BJ)	.	8dJ)	.	.	.
!!LO:LB
=143	=143	=143	=143	=143	=143	=143	=143
4.FF#y	.	4.A	.	2c#y	.	(4g#y_	.
.	.	.	.	.	.	4f#y)	.
(8AL	.	(8c#yL	.	.	.	.	.
8B	.	8d	.	8r	.	8r	.
8AJ	.	8c#yJ	.	(8a	.	(8ff#y	.
=144	=144	=144	=144	=144	=144	=144	=144
4.G#y)	.	4.B)	.	8bL	.	8gg#yL	.
.	.	.	.	8aJ	.	8ff#yJ	.
.	.	.	.	4.g#y)	.	4.ee)	.
(8G#yL	.	(8BL	.	.	.	.	.
8A	.	8c#y	.	.	.	.	.
8G#yJ	.	8BJ	.	(8g#y	.	(8ee	.
=145	=145	=145	=145	=145	=145	=145	=145
4.F#y)	.	4.A)	.	8aL	.	8ff#yL	.
.	.	.	.	8gnJ	.	8eeJ	.
.	.	.	.	4.f#y)	.	4.dd)	.
(8F#yL	.	(8AL	.	.	.	.	.
8Gn	.	8B	.	.	.	.	.
8F#yJ	.	8AJ	.	(8f#y	.	(8dd	.
=146	=146	=146	=146	=146	=146	=146	=146
4.E)	.	4.Gn)	.	8gnL	.	8eeL	.
.	.	.	.	8f#yJ	.	8ddJ	.
.	.	.	.	4.e)	.	4.cc#y)	.
(8EL	.	(8GL	.	.	.	.	.
8F#y	.	8A	.	.	.	.	.
8EJ	.	8GJ	.	8e	.	8cc#y	.
=147	=147	=147	=147	=147	=147	=147	=147
2.D)	crescendo	2F#y)	crescendo	(8f#yL	crescendo	(8ddL	crescendo
.	.	.	.	8gn	.	8ee	.
.	.	.	.	8f#y	.	8dd	.
.	.	.	.	8e	.	8cc#y	.
.	.	4f#y	.	8d	.	8b	.
.	.	.	.	8c#yJ)	.	8aJ)	.
=148	=148	=148	=148	=148	=148	=148	=148
((2D_	.	[2.e	.	(8BL	.	(8g#L	.
.	.	.	.	8G#	.	8e	.
.	.	.	.	8A	.	8f#y	.
.	.	.	.	8B	.	8g#y	.
4C#y	.	.	.	8c#y	.	8a	.
.	.	.	.	8eJ)	.	8bJ)	.
=149	=149	=149	=149	=149	=149	=149	=149
4BB)	.	4e]	.	(8aL	.	(8cc#yL	.
.	.	.	.	8b	.	8dd	.
4AA	.	4e	.	8dd	.	8ff#y	.
.	.	.	.	8cc#y	.	8ee	.
4C#y)	.	4e	.	8b	.	8dd	.
.	.	.	.	8aJ)	.	8cc#yJ)	.
=150	=150	=150	=150	=150	=150	=150	=150
[2.E	p	4e	.	4g#	.	4b	.
.	.	4r	.	4ee	.	4r	.
.	.	(4g#y	.	[4ee	.	4ee	.
=151	=151	=151	=151	=151	=151	=151	=151
2.E_	.	4a#	.	(4ee_	.	(4.ff#y	.
.	.	4b	.	2dd)	.	.	.
.	.	.	.	.	.	8gg#yL	.
.	.	4an	.	.	.	8aa	.
.	.	.	.	.	.	8bbJ)	.
=152	=152	=152	=152	=152	=152	=152	=152
2.E_	.	4g#y	.	(4dd_	.	(4.ee	.
.	.	4a	.	2cc#y)	.	.	.
.	.	.	.	.	.	8ff#yL	.
.	.	4g#y)	.	.	.	8gg#y	.
.	.	.	.	.	.	8aaJ)	.
=153	=153	=153	=153	=153	=153	=153	=153
2.E]	.	(4f#y	.	(4cc#y_	.	(8ddL	.
.	.	.	.	.	.	8ee	.
.	.	4g#y	.	4b	.	8dd	.
.	.	.	.	.	.	8b	.
.	.	4a)	.	4a)	.	8cc#y	.
.	.	.	.	.	.	8aJ)	.
=154	=154	=154	=154	=154	=154	=154	=154
[2.EE	.	4e	.	4g#y	.	4b	.
.	.	4r	.	4r	.	4ee	.
.	.	(4G#y	.	4e	.	[4ee	.
=155	=155	=155	=155	=155	=155	=155	=155
2.EE_	.	4A#	.	(4.f#y	.	(4ee_	.
.	.	4B	.	.	.	2dd)	.
.	.	.	.	8g#yL	.	.	.
.	.	4An	.	8a	.	.	.
.	.	.	.	8bJ)	.	.	.
=156	=156	=156	=156	=156	=156	=156	=156
2.EE_	.	4G#y	.	(4.e	.	(4dd_	.
.	.	4A	.	.	.	2ccn)	.
.	.	.	.	8f#yL	.	.	.
.	.	4Gn)	.	8g	.	.	.
.	.	.	.	8aJ)	.	.	.
=157	=157	=157	=157	=157	=157	=157	=157
2.EE_	.	(4F#y	.	(8dL	.	(4cc_	.
.	.	.	.	8e	.	.	.
.	.	4G#	.	8d	.	4b	.
.	.	.	.	8B	.	.	.
.	.	4A)	.	8cn	.	4a)	.
.	.	.	.	8AJ)	.	.	.
!!LO:LB
=158	=158	=158	=158	=158	=158	=158	=158
(4EE_	.	(2B	.	(2d	.	(8g#yL	.
.	.	.	.	.	.	8a	.
2FFn)	.	.	.	.	.	8g#y	.
.	.	.	.	.	.	8b	.
.	.	4G#y)	.	4B)	.	8dd	.
.	.	.	.	.	.	8bJ)	.
=159	=159	=159	=159	=159	=159	=159	=159
(4EE	.	(2B	.	(2d	.	(8g#yL	.
.	.	.	.	.	.	8a	.
2FFn)	.	.	.	.	.	8g#y	.
.	.	.	.	.	.	8b	.
.	.	4G#y)	.	4B)	.	8dd	.
.	.	.	.	.	.	8bJ)	.
=160	=160	=160	=160	=160	=160	=160	=160
4EE	.	(8BL	crescendo	(8dL	crescendo	4g#y	.
.	.	8A	.	8c#	.	.	.
4r	.	8G#y	.	8B	.	4r	.
.	.	8F#y	.	8A	.	.	.
4r	.	8E)	.	8G#y)	.	4r	.
.	.	8F#yJ	.	8AJ	.	.	.
=161	=161	=161	=161	=161	=161	=161	=161
4r	.	8G#y'L	.	8B'L	.	4r	.
.	.	8A'	.	8c#y'	.	.	.
4r	.	8B'	.	8d'	.	4r	.
.	.	8c#y'	.	8e'	.	.	.
4E	.	8d'	.	8f#y'	.	4ee	.
.	.	8B'J	.	8g#y'J	.	.	.
=162	=162	=162	=162	=162	=162	=162	=162
2AA	.	2c#y	.	2a	.	(4.ee	.
.	.	.	.	.	.	8dd#L	.
4r	.	4r	.	4r	.	8ff#y	.
.	.	.	.	.	.	8eeJ	.
=163	=163	=163	=163	=163	=163	=163	=163
2.r	.	2.r	.	2.r	.	8ddnL	.
.	.	.	.	.	.	8cc#y	.
.	.	.	.	.	.	8ee	.
.	.	.	.	.	.	8dd	.
.	.	.	.	.	.	8cc#y	.
.	.	.	.	.	.	8bJ)	.
=164	=164	=164	=164	=164	=164	=164	=164
4c#y	.	4e	.	4e	.	4a	.
4B	.	4g#y	.	4e 4d	.	4b	.
4A	.	4a	.	4e 4c#y	.	4cc#y	.
=165	=165	=165	=165	=165	=165	=165	=165
4G#y	.	4b	.	4e 4B	.	4dd	.
4r	.	4r	.	4r	.	4r	.
4Fn	.	4A	.	4a	.	4dd	.
!!LO:LB
=166	=166	=166	=166	=166	=166	=166	=166
2E	.	2B	.	2g#y	.	(4.dd	.
.	.	.	.	.	.	8cc#yL	.
4r	.	4r	.	4r	.	8ee	.
.	.	.	.	.	.	8ddJ	.
=167	=167	=167	=167	=167	=167	=167	=167
2.r	.	2.r	.	2.r	.	8cc#yL	.
.	.	.	.	.	.	8b	.
.	.	.	.	.	.	8dd	.
.	.	.	.	.	.	8cc#y	.
.	.	.	.	.	.	8b	.
.	.	.	.	.	.	8aJ)	.
=168	=168	=168	=168	=168	=168	=168	=168
(2.E	.	(4e	.	4e	.	4g#y	.
.	.	4d#	.	4f#y	.	4a	.
.	.	4dn)	.	4g#y	.	4b	.
=169	=169	=169	=169	=169	=169	=169	=169
4AA)	.	4c#y	.	4a	.	4cc#y	.
4r	.	4r	.	4r	.	4r	.
4AA	.	4A	.	4A	.	4A	.
=170	=170	=170	=170	=170	=170	=170	=170
(4.AA	.	(4.A	.	(4.A	.	(4.A	.
8C#yL	.	8c#yL	.	8c#yL	.	8c#yL	.
8D	.	8d	.	8d	.	8d	.
8C#yJ)	.	8c#yJ)	.	8c#yJ)	.	8c#yJ)	.
=171	=171	=171	=171	=171	=171	=171	=171
4BB	.	4B	.	4B	.	4B	.
4r	.	4r	.	4r	.	4r	.
4BB	.	4B	.	4B	.	4B	.
=172	=172	=172	=172	=172	=172	=172	=172
(4.BB	.	(4.B	.	(4.B	.	(4.B	.
8D#L	.	8d#L	.	8d#L	.	8d#L	.
8E	.	8e	.	8e	.	8e	.
8DnJ)	.	8dnJ)	.	8dnJ)	.	8dnJ)	.
=173	=173	=173	=173	=173	=173	=173	=173
4C#y	.	4c#y	.	4c#y	.	4c#y	.
4r	.	4r	.	4r	.	4r	.
4c#y	.	4e	.	4a	.	4aa	.
!!LO:LB
=174	=174	=174	=174	=174	=174	=174	=174
(2.c#y	.	(2.e	.	[2.a	.	(4.aa	.
.	.	.	.	.	.	8ccc#yL	.
.	.	.	.	.	.	8bb	.
.	.	.	.	.	.	8aaJ	.
=175	=175	=175	=175	=175	=175	=175	=175
4d)	.	4d)	.	4a]	.	8gg#yL	.
.	.	.	.	.	.	8ff#y	.
4r	.	4r	.	(8g#yL	.	8ee	.
.	.	.	.	8f#y	.	8dd	.
4r	.	4r	.	8e	.	8cc#y	.
.	.	.	.	8dJ)	.	8bJ)	.
=176	=176	=176	=176	=176	=176	=176	=176
4E	.	4r	.	(8c#yL	.	(2a	.
.	.	.	.	8e	.	.	.
4E	.	4r	.	8c#y	.	.	.
.	.	.	.	8e	.	.	.
4E	.	(4G#y	.	8d	.	8cc#yL	.
.	.	.	.	8eJ)	.	8bJ)	.
=177	=177	=177	=177	=177	=177	=177	=177
4AA	.	4A)	.	4c#y	.	4a	.
4r	.	4r	.	4r	.	4r	.
4r	.	4r	.	4a	.	4r	.
=178	=178	=178	=178	=178	=178	=178	=178
2.r	.	2.r	.	(4.a	.	2.r	.
.	.	.	.	8g#y	.	.	.
.	.	.	.	8b-L	.	.	.
.	.	.	.	8aJ	.	.	.
=179	=179	=179	=179	=179	=179	=179	=179
2.r	.	4r	.	8gnL	.	2.r	.
.	.	.	.	8fn	.	.	.
.	.	4r	.	8a	.	.	.
.	.	.	.	8g	.	.	.
.	.	4B-	.	8f	.	.	.
.	.	.	.	8eJ)	.	.	.
=180	=180	=180	=180	=180	=180	=180	=180
2.r	.	(4.B	.	4d	.	2.r	.
.	.	.	.	(4d'	.	.	.
.	.	8A	.	.	.	.	.
.	.	8cnL	.	4d'	.	.	.
.	.	8B-yJ	.	.	.	.	.
=181	=181	=181	=181	=181	=181	=181	=181
4r	.	8AL	.	4d'	.	2.r	.
.	.	8Gn	.	.	.	.	.
4r	.	8B-	.	4d'	.	.	.
.	.	8A	.	.	.	.	.
4BB-	.	8G	.	4d')	.	.	.
.	.	8FnJ)	.	.	.	.	.
=182	=182	=182	=182	=182	=182	=182	=182
(4.BB-	.	(2E	.	(4d	.	2.r	.
.	.	.	.	4cn	.	.	.
8AA	.	.	.	.	.	.	.
8CnL	.	4Fn)	.	4d)	.	.	.
8BB-yJ	.	.	.	.	.	.	.
=183	=183	=183	=183	=183	=183	=183	=183
8AAL	.	8G	.	8e	.	4r	.
8GGn	.	8r	.	8r	.	.	.
8BB-	.	(4Gn	.	(4e	.	4r	.
8AA	.	.	.	.	.	.	.
8GG	.	4A)	.	4fn)	.	4cccn	.
8FFnJ)	.	.	.	.	.	.	.
=184	=184	=184	=184	=184	=184	=184	=184
4EE	.	(8B-L	.	(8gnL	.	(4.cccn	.
.	.	8A	.	8a	.	.	.
4GGn	.	8Gn	.	8b-	.	.	.
.	.	8E	.	8g	.	8bbn	.
4EE	.	8G	.	8b-y	.	8dddL	.
.	.	8EJ)	.	8gJ)	.	8cccJ	.
=185	=185	=185	=185	=185	=185	=185	=185
4CC	.	4G	.	4e	.	8bb-L	.
.	.	.	.	.	.	8aa	.
4r	.	4r	.	4r	.	8cccn	.
.	.	.	.	.	.	8bb-y	.
4r	.	4r	.	4r	.	8aa	.
.	.	.	.	.	.	8ggnJ)	.
=186	=186	=186	=186	=186	=186	=186	=186
(4FFn	.	8r	.	8r	.	(2ffn	.
.	.	(8fnL	.	(8aL	.	.	.
4Fn)	.	8a	.	8ccn	.	.	.
.	.	8f	.	8a	.	.	.
4F	.	8A	.	8fn	.	4aa)	.
.	.	8fJ)	.	8aJ)	.	.	.
=187	=187	=187	=187	=187	=187	=187	=187
2.Fn	.	(8gnL	.	(8b-L	.	(4.ccn	.
.	.	8e	.	8g	.	.	.
.	.	8g	.	8b-y	.	.	.
.	.	8e	.	8g	.	8dd)	.
.	.	8g	.	8b-y	.	4cc	.
.	.	8eJ)	.	8gJ)	.	.	.
=188	=188	=188	=188	=188	=188	=188	=188
(4FFn	.	(8fnL	.	(8aL	.	(4cccn	.
.	.	8A	.	8cn	.	.	.
4Fn)	.	8cn	.	8fn	.	4aa	.
.	.	8f	.	8a	.	.	.
4F	.	8a	.	8ccn	.	4ffn)	.
.	.	8fJ)	.	8aJ)	.	.	.
!!LO:LB
=189	=189	=189	=189	=189	=189	=189	=189
2.F	.	(8gnL	.	(8b-L	.	(4.ccn	.
.	.	8e	.	8g	.	.	.
.	.	8g	.	8b-y	.	.	.
.	.	8e	.	8g	.	8dd)	.
.	.	8g	.	8b-y	.	4cc	.
.	.	8eJ)	.	8gJ)	.	.	.
=190	=190	=190	=190	=190	=190	=190	=190
4r	.	(4fn	.	(4a	.	(4.aa	.
(4F'	.	2a)	.	2ccn)	.	.	.
.	.	.	.	.	.	8ccnL	.
4F')	.	.	.	.	.	8aa	.
.	.	.	.	.	.	8ccJ)	.
=191	=191	=191	=191	=191	=191	=191	=191
4r	cre	(4f	cre	(4a	cre	(4.aa	cre
(4F'	.	2a)	.	2cc#)	.	.	.
.	.	.	.	.	.	8cc#L	.
4F')	.	.	.	.	.	8aa	.
.	.	.	.	.	.	8cc#yJ)	.
=192	=192	=192	=192	=192	=192	=192	=192
4r	scen	(4f	scen	(4a	scen	(4.aa	scen
(4F'	.	2a)	.	2dd)	.	.	.
.	.	.	.	.	.	8ddL	.
4F')	.	.	.	.	.	8aa	.
.	.	.	.	.	.	8ddJ)	.
=193	=193	=193	=193	=193	=193	=193	=193
(4F'	do	(4f	do	(4a	do	(8aaL	do
.	.	.	.	.	.	8dd#	.
4F'	.	2a)	.	2dd#)	.	8aa	.
.	.	.	.	.	.	8dd#y	.
4F')	.	.	.	.	.	8aa	.
.	.	.	.	.	.	8dd#yJ)	.
=194	=194	=194	=194	=194	=194	=194	=194
4E	.	8g#L	.	8eeL	.	8r	.
.	.	(8g#y	.	(8bn	.	(8eeL	.
4r	.	8b)	.	8ddn)	.	8eee)	.
.	.	8b	.	8dd	.	8eee'	.
4A	.	(8b	.	(8dd	.	8eee'	.
.	.	8aJ)	.	8ccnJ)	.	8eee'J	.
=195	=195	=195	=195	=195	=195	=195	=195
4e	.	(8aL	.	(8ccnL	.	8r	.
.	.	8g#y	.	8b	.	(8eeL	.
4r	.	8b)	.	8dd)	.	8eee)	.
.	.	8b	.	8dd	.	8eee	.
4A	.	(8b	.	(8dd	.	8eee	.
.	.	8aJ)	.	8ccJ)	.	8eeeJ	.
!!LO:LB
=196	=196	=196	=196	=196	=196	=196	=196
4e	.	(8aL	.	(8ccnL	.	8r	.
.	.	8g#y	.	8b	.	(8eeL	.
4r	.	8b)	.	8dd)	.	8eee)	.
.	.	8b	.	8dd	.	8eee	.
4A	.	(8b	.	(8dd	.	8eee	.
.	.	8aJ)	.	8ccJ)	.	8eeeJ	.
=197	=197	=197	=197	=197	=197	=197	=197
4E	.	4g#y	.	4b	.	4eee	.
4r	.	4r	.	4r	.	4r	.
4r	.	4r	.	4r	.	4r	.
=198	=198	=198	=198	=198	=198	=198	=198
(2.AA	.	[2.A	.	(2.c#	.	(2e	.
.	.	.	.	.	.	4e#	.
=199	=199	=199	=199	=199	=199	=199	=199
4D)	.	4A]	.	4d)	.	4f#y)	.
4r	.	4r	.	4r	.	4r	.
4r	.	4r	.	4r	.	4r	.
=200	=200	=200	=200	=200	=200	=200	=200
4r	.	4r	.	4r	.	(12f#yL	.
.	.	.	.	.	.	12g#y	.
.	.	.	.	.	.	12aJ	.
4r	.	4r	.	4r	.	12g#yL	.
.	.	.	.	.	.	12f#y	.
.	.	.	.	.	.	12eJ	.
(4GG#y	.	4E	.	4B	.	12dL	.
.	.	.	.	.	.	12e	.
.	.	.	.	.	.	12dJ)	.
=201	=201	=201	=201	=201	=201	=201	=201
4AA)	.	4E	.	(4A	.	(4c#y	.
4r	.	4r	.	4c#y)	.	4e)	.
4r	.	4r	.	4r	.	4r	.
=202	=202	=202	=202	=202	=202	=202	=202
(2.c#y	.	[2.a	.	(2e	.	(2ee	.
.	.	.	.	4e#	.	4ee#	.
=203	=203	=203	=203	=203	=203	=203	=203
4d)	.	4a]	.	4f#y)	.	4ff#y)	.
4r	.	4r	.	4r	.	4r	.
4r	.	4r	.	4r	.	4r	.
!!LO:LB
=204	=204	=204	=204	=204	=204	=204	=204
4r	.	4r	.	4r	.	(12aaL	.
.	.	.	.	.	.	12gg#y	.
.	.	.	.	.	.	12ff#yJ	.
4r	.	4r	.	4r	.	12eeL	.
.	.	.	.	.	.	12dd	.
.	.	.	.	.	.	12cc#yJ	.
4E	.	(4d	.	(4g#y	.	12bL	.
.	.	.	.	.	.	12cc#y	.
.	.	.	.	.	.	12bJ)	.
=205	=205	=205	=205	=205	=205	=205	=205
4AA	.	4c#y)	.	4a)	.	(8aL	.
.	.	.	.	.	.	8cc#y	.
4r	.	4r	.	4r	.	8ee	.
.	.	.	.	.	.	8aa	.
4r	.	4r	.	4r	.	8ccc#y	.
.	.	.	.	.	.	8eeeJ)	.
=206	=206	=206	=206	=206	=206	=206	=206
(2.A	.	(2.cc#y	.	(2ee	.	4aa	.
.	.	.	.	.	.	4r	.
.	.	.	.	4ee#	.	4r	.
=207	=207	=207	=207	=207	=207	=207	=207
4D)	.	2.dd)	.	4ff#y)	.	(2aa	.
4r	.	.	.	4r	.	.	.
4r	.	.	.	4r	.	4aa#)	.
=208	=208	=208	=208	=208	=208	=208	=208
2.r	.	(4dd#	.	(12ff#yL	.	(2bb	.
.	.	.	.	12gg#y	.	.	.
.	.	.	.	12aaJ	.	.	.
.	.	4ee	.	12gg#yL	.	.	.
.	.	.	.	12ff#y	.	.	.
.	.	.	.	12eeJ	.	.	.
.	.	4g#y)	.	12ddL	.	4bb#)	.
.	.	.	.	12ee	.	.	.
.	.	.	.	12ddJ)	.	.	.
=209	=209	=209	=209	=209	=209	=209	=209
(2A	.	4a	.	(4cc#y	.	(12ccc#yL	.
.	.	.	.	.	.	12eee	.
.	.	.	.	.	.	12dddJ	.
.	.	4r	.	4ee)	.	12ccc#yL	.
.	.	.	.	.	.	12bbn	.
.	.	.	.	.	.	12aaJ	.
4B	.	4r	.	4r	.	12gg#yL	.
.	.	.	.	.	.	12aa	.
.	.	.	.	.	.	12ff#yJ)	.
=210	=210	=210	=210	=210	=210	=210	=210
4c#y)	.	2.c#y	.	(12eeL	.	(2ee	.
.	.	.	.	12ff#y	.	.	.
.	.	.	.	12eeJ	.	.	.
4r	.	.	.	12ddL	.	.	.
.	.	.	.	12cc#y	.	.	.
.	.	.	.	12bJ	.	.	.
4r	.	.	.	12aL	.	4ee#)	.
.	.	.	.	12b	.	.	.
.	.	.	.	12gnJ)	.	.	.
=211	=211	=211	=211	=211	=211	=211	=211
(2D	.	(12dL	.	4f#y	.	4ff#y	.
.	.	12f#y	.	.	.	.	.
.	.	12eJ	.	.	.	.	.
.	.	12dL	.	4r	.	[2bb	.
.	.	12c#y	.	.	.	.	.
.	.	12BJ	.	.	.	.	.
4D#)	.	12AL	.	[4ff#y	.	.	.
.	.	12B	.	.	.	.	.
.	.	12AJ)	.	.	.	.	.
=212	=212	=212	=212	=212	=212	=212	=212
(2E	.	4G#	.	(12ff#yL_	.	(8bbL_	.
.	.	.	.	12gg#	.	.	.
.	.	.	.	.	.	8gg#yJ)	.
.	.	.	.	12ff#yJ	.	.	.
.	.	4r	.	12eeL	.	[2ccc#y	.
.	.	.	.	12dd	.	.	.
.	.	.	.	12cc#yJ	.	.	.
4E#)	.	[4g#y	.	12bL	.	.	.
.	.	.	.	12cc#y	.	.	.
.	.	.	.	12bJ)	.	.	.
=213	=213	=213	=213	=213	=213	=213	=213
2F#y	.	(12g#yL_	.	4a	.	(8ccc#yL_	.
.	.	12a	.	.	.	.	.
.	.	.	.	.	.	8aaJ)	.
.	.	12g#yJ	.	.	.	.	.
.	.	12f#yL	.	4r	.	[2ddd	.
.	.	12e	.	.	.	.	.
.	.	12dJ	.	.	.	.	.
(4F#y	.	12c#yL	.	[4aa	.	.	.
.	.	12d	.	.	.	.	.
.	.	12c#yJ)	.	.	.	.	.
=214	=214	=214	=214	=214	=214	=214	=214
2G#y)	.	4B	.	(12aaL_	.	(8dddL_	.
.	.	.	.	12bb	.	.	.
.	.	.	.	.	.	8bbJ)	.
.	.	.	.	12aaJ	.	.	.
.	.	4r	.	12gg#yL	.	[2eee	.
.	.	.	.	12ff#y	.	.	.
.	.	.	.	12eeJ	.	.	.
(4G#y	.	(4b	.	12ddL	.	.	.
.	.	.	.	12ee	.	.	.
.	.	.	.	12ddJ)	.	.	.
=215	=215	=215	=215	=215	=215	=215	=215
4A)	.	4a)	.	(2cc#y	.	(8eeeL_	.
.	.	.	.	.	.	8ccc#y	.
4r	.	(2a	.	.	.	8fff#y	.
.	.	.	.	.	.	8ccc#y	.
4r	.	.	.	[4b	.	8ddd	.
.	.	.	.	.	.	8bbJ)	.
=216	=216	=216	=216	=216	=216	=216	=216
2.r	.	2g#y	.	4b]	.	(8eeeL	.
.	.	.	.	.	.	8bb	.
.	.	.	.	2a)	.	8ccc#y	.
.	.	.	.	.	.	8aa	.
.	.	4f#y)	.	.	.	8ddd	.
.	.	.	.	.	.	8aaJ)	.
!!LO:LB
=217	=217	=217	=217	=217	=217	=217	=217
2.r	.	(4f#y_	.	(2g#y	.	(8bbL	.
.	.	.	.	.	.	8gg#y	.
.	.	2e)	.	.	.	8ccc#y	.
.	.	.	.	.	.	8gg#y	.
.	.	.	.	[4f#y	.	8aa	.
.	.	.	.	.	.	8ff#yJ)	.
=218	=218	=218	=218	=218	=218	=218	=218
2.r	.	(2d	.	4f#y]	.	(8bbL	.
.	.	.	.	.	.	8ff#y	.
.	.	.	.	2e)	.	8gg#y	.
.	.	.	.	.	.	8ee	.
.	.	4c#y)	.	.	.	8aa	.
.	.	.	.	.	.	8eeJ)	.
=219	=219	=219	=219	=219	=219	=219	=219
4r	.	4r	.	4r	.	(8ddL	.
.	.	.	.	.	.	8b	.
(4B	.	[2B	.	[2d	.	8f#y	.
.	.	.	.	.	.	8dd	.
4A)	.	.	.	.	.	8fn	.
.	.	.	.	.	.	8ddJ)	.
=220	=220	=220	=220	=220	=220	=220	=220
(2G#y	.	4B]	.	4d]	.	(8eL	.
.	.	.	.	.	.	8dd	.
.	.	(4d	.	(4f#y	.	8ff	.
.	.	.	.	.	.	8dd	.
4A)	.	4c#y	.	4e	.	8ee	.
.	.	.	.	.	.	8cc#yJ)	.
=221	=221	=221	=221	=221	=221	=221	=221
4D	.	4B	.	4d	.	(8ddL	.
.	.	.	.	.	.	8b	.
4E	.	4A	.	4c#y	.	8cc#y	.
.	.	.	.	.	.	8a	.
4E	.	4G#y)	.	4B)	.	8b	.
.	.	.	.	.	.	8g#yJ)	.
=222	=222	=222	=222	=222	=222	=222	=222
4AA	.	4A	.	4A	.	(8aL	cresc.
.	.	.	.	.	.	8cc#y	.
4r	.	4r	.	4r	.	8ee)	.
.	.	.	.	.	.	8aa	.
4r	.	4r	.	4r	.	(8ccc#y	.
.	.	.	.	.	.	8eeeJ)	.
=223	=223	=223	=223	=223	=223	=223	=223
2.r	.	4r	.	4r	.	(8dddL	.
.	.	.	.	.	.	8bb	.
.	.	(4b	.	(4dd	.	8ff#y	.
.	.	.	.	.	.	8ddd	.
.	.	4a)	.	4ccn)	.	8ffn	.
.	.	.	.	.	.	8dddJ)	.
!!LO:LB
=224	=224	=224	=224	=224	=224	=224	=224
2.r	.	(2g#y	.	(2b	.	(8eeL	.
.	.	.	.	.	.	8bb	.
.	.	.	.	.	.	8ddd)	.
.	.	.	.	.	.	8ee	.
.	.	4a)	.	4ccn)	.	(8ffn	.
.	.	.	.	.	.	8dddJ)	.
=225	=225	=225	=225	=225	=225	=225	=225
2.r	.	(2g#y	.	(2b	.	(8eeL	.
.	.	.	.	.	.	8bb	.
.	.	.	.	.	.	8ddd)	.
.	.	.	.	.	.	8ee	.
.	.	4a)	.	4ccn)	.	(8ffn	.
.	.	.	.	.	.	8dddJ)	.
=226	=226	=226	=226	=226	=226	=226	=226
2.r	.	2.g#y	.	2.b	.	(8eeL	.
.	.	.	.	.	.	8bb	.
.	.	.	.	.	.	8ddd)	.
.	.	.	.	.	.	8ddd'	.
.	.	.	.	.	.	8ddd'	.
.	.	.	.	.	.	8ddd'J	.
=227	=227	=227	=227	=227	=227	=227	=227
2.f#y	.	[2.a	.	2.ccn	.	8r	.
.	.	.	.	.	.	(8aaL	.
.	.	.	.	.	.	8ddd#)	.
.	.	.	.	.	.	8ddd#y'	.
.	.	.	.	.	.	8ddd#y'	.
.	.	.	.	.	.	8ddd#y'J	.
=228	=228	=228	=228	=228	=228	=228	=228
(4e	.	(4a_	.	(4cc#	.	8r	.
.	.	.	.	.	.	8eeeL	.
4e#	.	4g#y	.	8ddL	.	(8bb	.
.	.	.	.	8bJ)	.	8dddn)	.
4f#y)	.	4a)	.	4a	.	(8aa	.
.	.	.	.	.	.	8ccc#yJ)	.
=229	=229	=229	=229	=229	=229	=229	=229
4d	.	4dd	.	4ff#y	.	8dd'L	.
.	.	.	.	.	.	8bb'	.
4en	.	4cc#y	.	4ee	.	8cc#y	.
.	.	.	.	.	.	8aa	.
4E	.	4b	.	4dd	.	8b	.
.	.	.	.	.	.	8gg#yJ	.
=230	=230	=230	=230	=230	=230	=230	=230
2.r	.	2.f#y	.	[2.cc#y	.	(4.aa	.
.	.	.	.	.	.	8gg#yL	.
.	.	.	.	.	.	8bb	.
.	.	.	.	.	.	8aaJ	.
!!LO:LB
=231	=231	=231	=231	=231	=231	=231	=231
2.r	.	(2e	.	(2cc#y_	.	8ggnL	.
.	.	.	.	.	.	8ff#y	.
.	.	.	.	.	.	8aa	.
.	.	.	.	.	.	8gg	.
.	.	4c#y)	.	4a)	.	8ff#y	.
.	.	.	.	.	.	8ee#J)	.
=232	=232	=232	=232	=232	=232	=232	=232
2.r	.	4d	.	4a	.	4ff#y	.
.	.	4r	.	8r	.	8r	.
.	.	.	.	(8ddL	.	(8ff#yL	.
.	.	4r	.	8ee	.	8gg#	.
.	.	.	.	8ff#yJ)	.	8aaJ)	.
=233	=233	=233	=233	=233	=233	=233	=233
2.r	.	4e	.	(8cc#yL	.	(8eeL	.
.	.	.	.	8dd	.	8ff#y	.
.	.	4e	.	8cc#y	.	8ee	.
.	.	.	.	8a	.	8cc#y	.
.	.	4e	.	8b	.	8dd	.
.	.	.	.	8g#yJ)	.	8bJ)	.
=234	=234	=234	=234	=234	=234	=234	=234
.	.	.	.	(<16qa	.	.	.
(4.f#y	.	[2.a	.	(4.aa)	.	4a	.
.	.	.	.	.	.	4r	.
8e#L	.	.	.	8gg#yL	.	.	.
8gn	.	.	.	8bb	.	4r	.
8f#yJ	.	.	.	8aaJ	.	.	.
=235	=235	=235	=235	=235	=235	=235	=235
8enL	.	2.a]	.	8ggnL	.	2.r	.
8d#	.	.	.	8ff#y	.	.	.
8f#y	.	.	.	8aa	.	.	.
8e	.	.	.	8gg	.	.	.
8dn	.	.	.	8ff#y	.	.	.
8c#yJ)	.	.	.	8ee#J)	.	.	.
=236	=236	=236	=236	=236	=236	=236	=236
4d	.	(4.d	.	4ff#y	.	(4.ff#y	.
4r	.	.	.	4r	.	.	.
.	.	8c#yL	.	.	.	8ee#L	.
4r	.	8e	.	4r	.	8ggn	.
.	.	8dJ	.	.	.	8ff#yJ	.
=237	=237	=237	=237	=237	=237	=237	=237
2.r	.	8c#yL	.	[2.f#y	.	8eenL	.
.	.	8B#	.	.	.	8dd#	.
.	.	8d#	.	.	.	8ff#y	.
.	.	8c#y	.	.	.	8ee	.
.	.	8Bn	.	.	.	8ddn	.
.	.	8A#J)	.	.	.	8cc#yJ)	.
=238	=238	=238	=238	=238	=238	=238	=238
(4.B	.	4B	.	2.f#y_	.	(2.dd	.
.	.	[2b	.	.	.	.	.
8A#L	.	.	.	.	.	.	.
8c#y	.	.	.	.	.	.	.
8BJ	.	.	.	.	.	.	.
=239	=239	=239	=239	=239	=239	=239	=239
8AnL	.	2.b]	.	4f#y]	.	2dd#)	.
8G#y	.	.	.	.	.	.	.
8B	.	.	.	2ff#y	.	.	.
8A	.	.	.	.	.	.	.
8G#y	.	.	.	.	.	4b	.
8F#yJ)	.	.	.	.	.	.	.
=240	=240	=240	=240	=240	=240	=240	=240
(4.G#y	.	4e	.	2.r	.	(4.bb	.
.	.	[2ee	.	.	.	.	.
8F#yL	.	.	.	.	.	8aa#L	.
8A	.	.	.	.	.	8ccc#y	.
8G#yJ	.	.	.	.	.	8bbJ	.
=241	=241	=241	=241	=241	=241	=241	=241
8F#yL	.	(4ee_	.	4b	.	8aanL	.
8E#	.	.	.	.	.	8gg#y	.
8G#y	.	4dd#)	.	2bb	.	8bb	.
8F#y	.	.	.	.	.	8aa	.
8En	.	4r	.	.	.	8gg#y	.
8D#J)	.	.	.	.	.	8ff##J)	.
=242	=242	=242	=242	=242	=242	=242	=242
4E	.	2.r	.	(8eeL	.	2.gg#y	.
.	.	.	.	8dd#	.	.	.
2e	.	.	.	8ff#y	.	.	.
.	.	.	.	8ee	.	.	.
.	.	.	.	8ddn	.	.	.
.	.	.	.	8cc#yJ)	.	.	.
=243	=243	=243	=243	=243	=243	=243	=243
2.r	.	4e	.	(8ddL	.	2.bb	.
.	.	.	.	8cc#y	.	.	.
.	.	2ee	.	8ee	.	.	.
.	.	.	.	8dd	.	.	.
.	.	.	.	8cc#y	.	.	.
.	.	.	.	8bJ)	.	.	.
=244	=244	=244	=244	=244	=244	=244	=244
4EE	.	2.r	.	(8cc#yL	.	(8eeL	.
.	.	.	.	8b	.	8dd#	.
2E	.	.	.	8dd	.	8ff#y	.
.	.	.	.	8cc#y	.	8ee	.
.	.	.	.	8b	.	8ddn	.
.	.	.	.	8aJ)	.	8cc#yJ)	.
=245	=245	=245	=245	=245	=245	=245	=245
2.r	.	4E	.	(8bL	.	(8ddL	.
.	.	.	.	8a#	.	8cc#y	.
.	.	2e	.	8cc#y	.	8ee	.
.	.	.	.	8b	.	8dd	.
.	.	.	.	8an	.	8cc#y	.
.	.	.	.	8g#yJ)	.	8bJ)	.
!!LO:LB
=246	=246	=246	=246	=246	=246	=246	=246
(8AL	.	(8cc#yL	.	4a	.	4cc#y	.
8G#y	.	8b	.	.	.	.	.
8c#y	.	8ee	.	4e	.	4aa	.
8B	.	8dd	.	.	.	.	.
8A	.	8cc#y	.	4r	.	4r	.
8G#yJ)	.	8bJ)	.	.	.	.	.
=247	=247	=247	=247	=247	=247	=247	=247
(8F#yL	.	(8aL	.	4A	.	4cc#y	.
8E#	.	8g#y	.	.	.	.	.
8A	.	8cc#y	.	4a	.	4ccc#y	.
8G#y	.	8b	.	.	.	.	.
8F#y	.	8a	.	4r	.	4r	.
8EnJ)	.	8g#yJ)	.	.	.	.	.
=248	=248	=248	=248	=248	=248	=248	=248
(8DL	.	(8f#yL	.	4d	.	4a	.
8C#y	.	8e#	.	.	.	.	.
8F#y	.	8a	.	4dd	.	4aa	.
8E	.	8g#y	.	.	.	.	.
8D	.	8f#y	.	4r	.	4r	.
8C#yJ)	.	8enJ)	.	.	.	.	.
=249	=249	=249	=249	=249	=249	=249	=249
(8BBL	.	(8dL	.	4dd	.	4ff#y	.
8AA#	.	8c#y	.	.	.	.	.
8D	.	8f#y	.	4bb	.	4ddd	.
8C#y	.	8e	.	.	.	.	.
8BB	.	8d	.	4r	.	4r	.
8AAnJ)	.	8c#yJ)	.	.	.	.	.
=250	=250	=250	=250	=250	=250	=250	=250
(2.GG#y	.	(2.B	.	(2.ffn	.	(2.ddd	.
=251	=251	=251	=251	=251	=251	=251	=251
2.AA#)	.	2.gn)	.	2.ee	.	2.ccc#y)	.
=252	=252	=252	=252	=252	=252	=252	=252
(2BB	.	(2f#y	.	2dd#	.	(4ccc#y_	.
.	.	.	.	.	.	2bb)	.
4G#y)	.	4fn	.	4ddn	.	.	.
=253	=253	=253	=253	=253	=253	=253	=253
2A	.	2e)	.	2cc#y)	.	(4bb_	.
.	.	.	.	.	.	4aa)	.
4F#y	.	4a	.	4ccn	.	4dd#	.
=254	=254	=254	=254	=254	=254	=254	=254
4E	.	4a	.	4cc#	.	(4.ee	.
4r	.	4r	.	4r	.	.	.
.	.	.	.	.	.	8dd#L	.
4r	.	4r	.	4r	.	8ff#y	.
.	.	.	.	.	.	8eeJ	.
!!LO:LB
=255	=255	=255	=255	=255	=255	=255	=255
4r	.	4r	.	2.r	.	8ddnL	.
.	.	.	.	.	.	8cc#y	.
4r	.	4r	.	.	.	8ee	.
.	.	.	.	.	.	8dd	.
(4D#	.	(4B	.	.	.	8ccn	.
.	.	.	.	.	.	8bJ)	.
=256	=256	=256	=256	=256	=256	=256	=256
4E	crescendo	4cn	crescendo	4r	.	[2.a	crescendo
4Fn	.	4d	.	4r	.	.	.
4F#)	.	4d#)	.	4cn	.	.	.
=257	=257	=257	=257	=257	=257	=257	=257
(2E	.	(2e	.	(2c#	.	(2a_	.
4Dn)	.	4g#y)	.	4e)	.	8cc#L	.
.	.	.	.	.	.	8bJ)	.
=258	=258	=258	=258	=258	=258	=258	=258
4C#y	.	4a	.	4e]	.	(8aL	.
.	.	.	.	.	.	8ee)	.
4BB	.	2e	.	(4g#y	.	(8ee	.
.	.	.	.	.	.	8dd)	.
4AA	.	.	.	4a)	.	(8dd	.
.	.	.	.	.	.	8cc#yJ)	.
=259	=259	=259	=259	=259	=259	=259	=259
4D	.	(4d	.	(4f#y	.	(8cc#yL	.
.	.	.	.	.	.	8b)	.
4E	.	4c#y	.	4e	.	(8b	.
.	.	.	.	.	.	8a)	.
4d	.	4e)	.	4b)	.	(8a	.
.	.	.	.	.	.	8g#yJ)	.
=260	=260	=260	=260	=260	=260	=260	=260
8c#y	.	8r	.	8r	.	8r	.
8r	.	8e	.	8a	.	8ee	.
8B	.	8r	.	8r	.	8r	.
8r	.	8g#y	.	8ee	.	8ddd	.
8A	.	8r	.	8r	.	8r	.
8r	.	8a	.	8ee	.	8ccc#y	.
=261	=261	=261	=261	=261	=261	=261	=261
8d	.	8r	.	8r	.	8r	.
8r	.	8dd	.	8ff#y	.	8bb	.
8e	.	8r	.	8r	.	8r	.
8r	.	8cc#y	.	8ee	.	8aa	.
8E	.	8r	.	8r	.	8r	.
8r	.	8b	.	8dd	.	8gg#y	.
=262	=262	=262	=262	=262	=262	=262	=262
4A	.	4a	.	4cc#y	.	4aa	.
4r	.	4r	.	4r	.	4r	.
4r	.	4r	.	4r	.	4a	.
!!LO:LB
=263	=263	=263	=263	=263	=263	=263	=263
2.F#y	.	(2c#y	.	4r	.	(4.a	.
.	.	.	.	4r	.	.	.
.	.	.	.	.	.	8cc#yL	.
.	.	4A)	.	4f#y	.	8dd	.
.	.	.	.	.	.	8cc#yJ)	.
=264	=264	=264	=264	=264	=264	=264	=264
(2D	.	4A]	.	(4.f#y	.	4b	.
.	.	[2B	.	.	.	4r	.
.	.	.	.	8a#L	.	.	.
4D#)	.	.	.	8b	.	[4ff#y	.
.	.	.	.	8anJ)	.	.	.
=265	=265	=265	=265	=265	=265	=265	=265
(4.E	.	2.B]	.	(2.g#y	.	(4ff#y_	.
.	.	.	.	.	.	4ee	.
8D#L	.	.	.	.	.	.	.
8E	.	.	.	.	.	4dd)	.
8E#J)	.	.	.	.	.	.	.
=266	=266	=266	=266	=266	=266	=266	=266
4F#y	.	4A	.	4a)	.	4cc#y	.
4r	.	4r	.	4r	.	4r	.
4r	.	4r	.	4a	.	4aa	.
=267	=267	=267	=267	=267	=267	=267	=267
8C#yL	.	8EL	.	(4.a	.	(4.aa	.
8c#y	.	8e	.	.	.	.	.
8c#y	.	8e	.	.	.	.	.
8c#y	.	8e	.	8cc#yL	.	8ccc#yL	.
8c#y	.	8e	.	8dd	.	8ddd	.
8c#yJ	.	8eJ	.	8cc#yJ)	.	8ccc#yJ)	.
=268	=268	=268	=268	=268	=268	=268	=268
8DL	.	8F#yL	.	4.b	.	(8bbL	.
8d	.	8f#y	.	.	.	8ccc#y	.
8d	.	8f#y	.	.	.	8bb)	.
8d	.	8f#y	.	8cc#y'L	.	8aa'	.
8d	.	8f#y	.	8b'	.	8gg#y'	.
8dJ	.	8f#yJ	.	8a'J	.	8ff#y'J	.
=269	=269	=269	=269	=269	=269	=269	=269
8EEL	.	8BL	.	8g#y'L	.	8ee'L	.
8E	.	8e	.	8a'	.	8ff#y'	.
8E	.	8e	.	8g#y'	.	8ee'	.
8E	.	8e	.	8b'	.	8dd'	.
8E	.	8e	.	8a'	.	8cc#y'	.
8EJ	.	8dJ	.	8g#y'J	.	8b'J	.
=270	=270	=270	=270	=270	=270	=270	=270
4AA	.	4c#y	.	4a	.	4a	.
4r	.	4r	.	4r	.	4r	.
=:|!	=:|!	=:|!	=:|!	=:|!	=:|!	=:|!	=:|!
*-	*-	*-	*-	*-	*-	*-	*-
!!!RDF**kern: < = below
